svgs/light/inbox.svg

<svg xmlns="http://www.w3.org/2000/svg" viewBox="0 0 512 512"><!-- Font Awesome Pro 6.0.0-alpha2 by @fontawesome - https://fontawesome.com License - https://fontawesome.com/license (Commercial License) --><path d="M508.285 304.918L447.031 56.25C443.469 42 430.688 32 416 32H96C81.312 32 68.531 42 64.969 56.25L3.715 304.918C1.248 314.936 0 325.215 0 335.533V432C0 458.51 21.49 480 48 480H464C490.51 480 512 458.51 512 432V335.533C512 325.215 510.752 314.936 508.285 304.918ZM96 64H415.984L471.16 288H368C361.938 288 356.406 291.438 353.688 296.844L326.109 352H185.891L158.312 296.844C155.594 291.438 150.062 288 144 288H40.838L96 64ZM480 432C480 440.822 472.822 448 464 448H48C39.178 448 32 440.822 32 432V335.533C32 330.305 33.035 325.16 33.885 320H134.109L161.687 375.156C164.406 380.562 169.938 384 176 384H336C342.062 384 347.594 380.562 350.312 375.156L377.891 320H478.115C478.965 325.16 480 330.307 480 335.533V432Z"/></svg>

<svg xmlns="http://www.w3.org/2000/svg" viewBox="0 0 512 512"><!--! Font Awesome Pro 6.3.0 by @fontawesome - https://fontawesome.com License - https://fontawesome.com/license (Commercial License) Copyright 2023 Fonticons, Inc. --><path d="M508.3 304.9l-61.25-248.7C443.5 42 430.7 31.1 416 31.1H96c-14.69 0-27.47 10-31.03 24.25L3.715 304.9C1.248 314.9 0 325.2 0 335.5v96.47c0 26.51 21.49 48 48 48h416c26.51 0 48-21.49 48-48v-96.47C512 325.2 510.8 314.9 508.3 304.9zM96 64h319.1l55.18 224H368c-6.062 0-11.59 3.438-14.31 8.844L326.1 352H185.9L158.3 296.8C155.6 291.4 150.1 288 144 288H40.84L96 64zM480 432c0 8.822-7.178 16-16 16h-416C39.18 448 32 440.8 32 432v-96.47C32 330.3 33.04 325.2 33.88 320h100.2l27.58 55.16C164.4 380.6 169.9 384 176 384h160c6.062 0 11.59-3.438 14.31-8.844L377.9 320h100.2C478.1 325.2 480 330.3 480 335.5V432z"/></svg>
